resources/icons/20px/rectangle.svg

<svg xmlns="http://www.w3.org/2000/svg" viewBox="0 0 20 20">
  <path d="M1 4h18c.55 0 1 .45 1 1v10c0 .55-.45 1-1 1H1c-.55 0-1-.45-1-1V5c0-.55.45-1 1-1m1 2v8h16V6z"/>
</svg>

<svg width="20" height="20" viewBox="0 0 20 20" fill="none" xmlns="http://www.w3.org/2000/svg">
<path fill-rule="evenodd" clip-rule="evenodd" d="M1 4H19C19.55 4 20 4.45 20 5V15C20 15.55 19.55 16 19 16H1C0.45 16 0 15.55 0 15V5C0 4.45 0.45 4 1 4ZM2 6V14H18V6H2Z" fill="#5F6B7C"/>
</svg>
